!!!COM: Gbeho, Philip
!!!CDT: 1905-1976
!!!OTL: National Anthem, Ghana
!!!ENC: Davis, Matthew J.
!!Vocal Line Only
**kern
*clefG2
*k[b-e-a-d-]
*A-:
*M12/8
=1-
4.cc
4cc
8cc
4.ee-
4a-
8a-
=2
[4.dd
4.dd]
[4.cc
4cc]
8a-
=3
4.ff
4.ee-
4.dd
4.cc
=4
4.b-
4.b-
[4.b-
4b-]
8r
=5
4.cc
4cc
8cc
4.ee-
4.a-
=6
[4.dd
4.dd]
[4.cc
4cc]
8cc
=7
4.b-
4.ee-
8ee-
8ff
8ee-
8ddn
8cc
8ddn
=8
[4.ee-
&[4.ee-]
4.ee-&]
8e-
8f
8g
=9
4.a-
4a-
8b-
4.cc
4cc
8b-
=10
4.an
4b-
8cc
4.dd
8f
8g
8a-
=11
4.b-
4b-
8cc
4.dd-
4.ddn
=12
4.ee-
4ee-
8dd-
[4.cc
4cc]
8a-
==!|:13
4.ff
4.ee-
4.dd-
4.cc
=14
4b-
8a-
4g
8f
4e-
8e-
4f
8g
=15
4.a-
4.cc
8cc
8dd-
8cc
8b-
8a-
8b-
=16
!First Ending
[4.a-
&[4.a-]
&&[4.a-&]
&&&[4a-&&]
8a-
==:|!17
!Second Ending
[4.a-
&[4.a-]
&&[4.a-&]
&&&[4a.-&&]
!D.C. (Repeat Entire piece a second time)
==|!
*-
